!!!!SEGMENT: pl-wtm--r-259-m--007_moniuszko-stanislaw--msza-benedictus.krn
!!!cenid: 18xx:2533
!!!COM: Moniuszko, Stanisław
!!!COM-rismID: pe30008351
!!!CDT: 1819/05/05-1872/06/04
!!!CNT: Polish
!!!OPR: Msza
!!!OTL: Benedictus
!!!OMV: 007
!!!PDT:
!!!AGN: Sacred; Mass
!!!SMS-siglum: PL-Wtm
!!!SMS-shelfmark: R 259/M
!!!SMS-shelfwork: 001-007 M
!!!SMS-variant:
!!!SMS-altvar:
!!!NIFC-rismSourceID: 1001095367
!!!NIFC-rismChildID: 1001095367
!!!NIFC-islandoraID:
!!!URL-pdf-islandora:
!!!URL-scan:
!!!ONB-nifc: UWAGA: części Mszy: 1. Kyrie, 2. Gloria, 3. Graduale, 4. Credo, 5. Offertorium, 6. Sanctus, 7. Benedictus, 8. Agnus
!!!AIN: 1 bass 1 cello 1 organ 1 viola 2 violn
!!!key:
**kern	**dynam	**kern	**dynam	**kern	**dynam	**kern	**dynam	**kern	**dynam	**kern	**kern	**dynam
*part6	*part6	*part5	*part5	*part4	*part4	*part3	*part3	*part2	*part2	*part1	*part1	*part1
*staff7	*	*staff6	*	*staff5	*	*staff4	*	*staff3	*	*staff2	*staff1	*
*Ibass	*	*Icello	*	*Iviola	*	*Ivioln	*	*Ivioln	*	*Iorgan	*Iorgan	*
*I"CB	*	*I"Vcelli	*	*I"Viola	*	*I"V. 2do	*	*I"V. 1mo	*	*I"Organo	*I"Organo	*
*clefF4	*	*clefF4	*	*clefC3	*	*clefG2	*	*clefG2	*	*clefF4	*clefG2	*
*Trd0c0	*	*	*	*	*	*	*	*	*	*	*	*
*k[b-e-a-d-]	*	*k[b-e-a-d-]	*	*k[b-e-a-d-]	*	*k[b-e-a-d-]	*	*k[b-e-a-d-]	*	*k[b-e-a-d-]	*k[b-e-a-d-]	*
*A-:	*	*A-:	*	*A-:	*	*A-:	*	*A-:	*	*A-:	*A-:	*
*M3/4	*	*M3/4	*	*M3/4	*	*M3/4	*	*M3/4	*	*M3/4	*M3/4	*
*all\right	*	*all\right	*	*all\right	*	*all\right	*	*all\right	*	*all\right	*all\right	*
=1	=1	=1	=1	=1	=1	=1	=1	=1	=1	=1	=1	=1
*	*	*	*	*	*	*	*	*	*	*	*^	*
!	!	!	!	!	!	!	!	!	!	!	!LO:TX:a:i:t=Stichnoten	!	!
2.r	.	2.r	.	2.r	.	2.r	.	2.r	.	2.r	8cc/L	2.r	.
.	.	.	.	.	.	.	.	.	.	.	8b-/J	.	.
.	.	.	.	.	.	.	.	.	.	.	4a-/	.	.
.	.	.	.	.	.	.	.	.	.	.	8g/L	.	.
.	.	.	.	.	.	.	.	.	.	.	8a-/J	.	.
=2	=2	=2	=2	=2	=2	=2	=2	=2	=2	=2	=2	=2	=2
2.r	.	2.r	.	2.r	.	2.r	.	2.r	.	2.r	(2b-/	2.r	.
.	.	.	.	.	.	.	.	.	.	.	4e-/)	.	.
=3	=3	=3	=3	=3	=3	=3	=3	=3	=3	=3	=3	=3	=3
2.r	.	2.r	.	2.r	.	2.r	.	2.r	.	2.r	8ee-/L	2.r	.
.	.	.	.	.	.	.	.	.	.	.	8dd-/J	.	.
.	.	.	.	.	.	.	.	.	.	.	4cc/	.	.
.	.	.	.	.	.	.	.	.	.	.	8b-/L	.	.
.	.	.	.	.	.	.	.	.	.	.	8cc/J	.	.
=4	=4	=4	=4	=4	=4	=4	=4	=4	=4	=4	=4	=4	=4
2.r	.	2.r	.	2.r	.	2.r	.	2.r	.	2.r	(2dd-/	2.r	.
.	.	.	.	.	.	.	.	.	.	.	4f/)	.	.
=5	=5	=5	=5	=5	=5	=5	=5	=5	=5	=5	=5	=5	=5
2.r	.	2.r	.	2.r	.	2.r	.	2.r	.	2.r	4a-/	2.r	.
.	.	.	.	.	.	.	.	.	.	.	8g/L	.	.
.	.	.	.	.	.	.	.	.	.	.	8a-/	.	.
.	.	.	.	.	.	.	.	.	.	.	8.cc/	.	.
.	.	.	.	.	.	.	.	.	.	.	16b-/Jk	.	.
=6	=6	=6	=6	=6	=6	=6	=6	=6	=6	=6	=6	=6	=6
2.r	.	2.r	.	2.r	.	2.r	.	2.r	.	2.r	2.b-/	2.r	.
=7	=7	=7	=7	=7	=7	=7	=7	=7	=7	=7	=7	=7	=7
*	*	*	*	*	*	*	*	*	*	*^	*	*	*
*	*	*	*	*	*	*	*	*	*	*	*	*	*2\right	*
!	!	!	!	!	!	!	!	!	!	!	!	!LO:TX:b:t=Organo.:rj	!	!LO:DY:rj
2.r	.	2.r	.	2.r	.	2.r	.	2.r	.	2.EE-/ 2.E-	2.r	2d-/ 2b-	2.g\	pp
.	.	.	.	.	.	.	.	.	.	.	.	8.e-/L 8.cc	.	.
.	.	.	.	.	.	.	.	.	.	.	.	16d-/Jk 16b-	.	.
=8	=8	=8	=8	=8	=8	=8	=8	=8	=8	=8	=8	=8	=8	=8
2.r	.	2.r	.	2.r	.	2.r	.	2.r	.	2EE-/ [<2E-	2.r	2.a-/	(>4c\	.
.	.	.	.	.	.	.	.	.	.	.	.	.	4e-\)	.
.	.	.	.	.	.	.	.	.	.	4E-/] 4A-	.	.	4r	.
=9	=9	=9	=9	=9	=9	=9	=9	=9	=9	=9	=9	=9	=9	=9
*	*	*	*	*	*	*	*	*	*	*	*^	*	*	*
*	*	*	*	*	*	*	*	*	*	*	*	*2\right	*	*	*
2.r	.	2.r	.	2.r	.	2.r	.	2.r	.	2B-/	2.r	2.E-\	2dd-/	2g\	.
.	.	.	.	.	.	.	.	.	.	8c/L	.	.	8ee-/L	4ryy	.
.	.	.	.	.	.	.	.	.	.	8B-/J	.	.	8dd-/J	.	.
*	*	*	*	*	*	*	*	*	*	*	*v	*v	*	*	*
!!LO:LB:g=original
=10	=10	=10	=10	=10	=10	=10	=10	=10	=10	=10	=10	=10	=10	=10
2.r	.	2.r	.	2.r	.	2.r	.	2.r	.	2A-/	2.r	2cc/	2a-\	.
.	.	.	.	.	.	.	.	.	.	8.r	.	8.r	4ryy	.
.	.	.	.	.	.	.	.	.	.	16A-/	.	16a-/	.	.
*	*	*	*	*	*	*	*	*	*	*	*	*v	*v	*
=11	=11	=11	=11	=11	=11	=11	=11	=11	=11	=11	=11	=11	=11
4r;	.	4r;	.	4r;	.	4r;	.	4r;	.	8.D-;/L 8.A- 8.d-	2.r	8.f;/L 8.a- 8.ff	.
.	.	.	.	.	.	.	.	.	.	16C/Jk 16A- 16c	.	16e-/Jk 16a- 16ee-	.
4r	.	4r	.	4r	.	4r	.	4r	.	4C/ 4A- 4c	.	4e-/ 4a- 4ee-	.
4r	.	4r	.	4r	.	4r	.	4r	.	8r	.	8r	.
.	.	.	.	.	.	.	.	.	.	8A-/	.	8e-/ 8a- 8cc	.
=12	=12	=12	=12	=12	=12	=12	=12	=12	=12	=12	=12	=12	=12
4r;	.	4r;	.	4r;	.	4r;	.	4r;	.	8.G;/L 8.B-	2.r	8.e-;/L 8.b- 8.ee-	.
.	.	.	.	.	.	.	.	.	.	16G/Jk 16B-	.	16e-/Jk 16b- 16dd-	.
4r	.	4r	.	4r	.	4r	.	4r	.	4A-/ 4c	.	4e-/ 4a- 4cc	.
4r	.	4r	.	4r	.	4r	.	4r	.	8r	.	8r	.
.	.	.	.	.	.	.	.	.	.	(<8C/ 8c	.	(8cc/	.
=13	=13	=13	=13	=13	=13	=13	=13	=13	=13	=13	=13	=13	=13
4r	.	4r	.	4r	.	4r	.	4r	.	4E-/)	2.r	4e-/) 4ee-	.
4r	.	4r	.	4r	.	4r	.	4r	.	8A-/L	.	8a-/L	.
.	.	.	.	.	.	.	.	.	.	8B-/	.	8b-/	.
4r;	.	4r;	.	4r;	.	4r;	.	4r;	.	8.c;/	.	8.cc;/	.
.	.	.	.	.	.	.	.	.	.	16A-/Jk	.	16a-/Jk	.
=14	=14	=14	=14	=14	=14	=14	=14	=14	=14	=14	=14	=14	=14
2.r	.	2.r	.	2.r	.	2.r	.	2.r	.	2.E-/	2.r	2.e-/	.
=15	=15	=15	=15	=15	=15	=15	=15	=15	=15	=15	=15	=15	=15
4r;	.	4r;	.	4r;	.	4r;	.	4r;	.	8.GG;/L 8.E-	2.r	8.B-;/L 8.e-	.
.	.	.	.	.	.	.	.	.	.	16AA-/Jk 16E-	.	16c/Jk 16e-	.
4r	.	4r	.	4r	.	4r	.	4r	.	4.AA-/ 4.E-	.	4.c/ 4.e-	.
4r	.	4r	.	4r	.	4r	.	4r	.	.	.	.	.
.	.	.	.	.	.	.	.	.	.	8BB-/ 8E-	.	8d-/ 8g	.
=16	=16	=16	=16	=16	=16	=16	=16	=16	=16	=16	=16	=16	=16
4r;	.	4r;	.	4r;	.	4r;	.	4r;	.	8.D-;/L 8.G	2.r	8.B-;/L 8.e- 8.b-	.
.	.	.	.	.	.	.	.	.	.	16C/Jk 16A-	.	16e-/Jk 16a-	.
4r	.	4r	.	4r	.	4r	.	4r	.	(4C/ 4A-	.	4e-/ 4a-	.
4r	.	4r	.	4r	.	4r	.	4r	.	4D-/) 4A-	.	4d-/ 4f	.
=17	=17	=17	=17	=17	=17	=17	=17	=17	=17	=17	=17	=17	=17
*	*	*	*	*	*	*	*	*	*	*	*^	*^	*
2.r	.	2.r	.	2.r	.	2.r	.	2.r	.	2A-/	2.r	2.E-\	4a-/	2c\	.
.	.	.	.	.	.	.	.	.	.	.	.	.	8g/L	.	.
.	.	.	.	.	.	.	.	.	.	.	.	.	8a-/	.	.
.	.	.	.	.	.	.	.	.	.	4G/	.	.	8.b-/	8.d-\L	.
.	.	.	.	.	.	.	.	.	.	.	.	.	16e-/Jk	16e-\Jk	.
*	*	*	*	*	*	*	*	*	*	*	*v	*v	*	*	*
=18	=18	=18	=18	=18	=18	=18	=18	=18	=18	=18	=18	=18	=18	=18
2.r	.	2.r	.	2.r	.	2.r	.	2.r	.	2AA-/ 2A-	2.r	2.cc/	(>4c\ 4e-	.
.	.	.	.	.	.	.	.	.	.	.	.	.	4dn\ 4f	.
.	.	.	.	.	.	.	.	.	.	4A-/	.	.	4dn\) 4f#X	.
=19	=19	=19	=19	=19	=19	=19	=19	=19	=19	=19	=19	=19	=19	=19
2.r	.	2.r	.	2.r	.	2.r	.	2.r	.	2G/	2.r	4cc/	2en\ 2g	.
.	.	.	.	.	.	.	.	.	.	.	.	8bn/L	.	.
.	.	.	.	.	.	.	.	.	.	.	.	8cc/	.	.
.	.	.	.	.	.	.	.	.	.	4G/ 4Bn	.	8.ddn/	4f\	.
.	.	.	.	.	.	.	.	.	.	.	.	16g/Jk	.	.
*	*	*	*	*	*	*	*	*	*	*	*	*v	*v	*
!!LO:PB:g=original
=20	=20	=20	=20	=20	=20	=20	=20	=20	=20	=20	=20	=20	=20
!LO:TX:t=P:problem=powtórzenie partii vlc	!	!	!	!	!	!	!	!	!	!	!	!	!
4ryy	.	4r	.	4r	.	4r	.	4r	.	4.c/	4r	4.en/ 4.een	.
4ryy	.	4r	.	4r	.	4r	.	4r	.	.	4r	.	.
.	.	.	.	.	.	.	.	.	.	8r	.	8r	.
!	!LO:DY:rj	!	!LO:DY:rj	!	!LO:DY:rj	!	!LO:DY:rj	!LO:TX:a:t=marcato	!LO:DY:rj	!	!	!	!LO:DY:rj
8.Bn\Lyy	ffy	8.Bn\L	ff	8.dn\L 8.bn	ff	8.g#X/L 8.bn	ff	8.b-\L 8.een	ff	8.En/L 8.G# 8.Bn	4BBn^\ 4Dn	8.d-/L 8.e 8.g# 8.bn 8.ee	ff
16B\Jkyy	.	16B\Jk	.	16d\Jk 16b	.	16g#/Jk 16b	.	16b-\Jk 16ee	.	16D/Jk 16E 16G# 16B	.	16d-/Jk 16e 16g# 16b 16ee	.
=21	=21	=21	=21	=21	=21	=21	=21	=21	=21	=21	=21	=21	=21
*2\right	*	*2\right	*	*2\right	*	*	*	*2\right	*	*	*	*	*
!	!	!	!	!	!	!	!	!LO:TX:b:t=a:color=red	!	!	!LO:SIC:v:n=2:s=2BBn^\	!LO:SIC:v:n=5:s=2dn/	!
2Bn\yy	.	2Bn\	.	2dn\ 2bn	.	2g#X/ 2bn	.	2bn\ 2een	.	2En/ 2G# 2Bn	2BB-^\ 2Dn	2d-/ 2en 2g#X 2bn 2een	.
!	!	!	!	!	!	!	!	!	!	!	!LO:SIC:v:s=4BBn\	!	!
8.B\Lyy	.	8.B\L	.	8.d\L 8.b	.	8.g#/L 8.b	.	8.b\L 8.ee	.	8.D/L 8.E 8.G# 8.B	4BB-\	8.d-/L 8.e 8.g# 8.b 8.ee	.
16B\Jkyy	.	16B\Jk	.	16d\Jk 16b	.	16g#/Jk 16b	.	16b\Jk 16ee	.	16D/Jk 16E 16G# 16B	.	16d-/Jk 16e 16g# 16b 16ee	.
=22	=22	=22	=22	=22	=22	=22	=22	=22	=22	=22	=22	=22	=22
*	*	*rep	*	*rep	*	*rep	*	*rep	*	*rep	*rep	*rep	*
!	!	!	!	!	!	!	!	!LO:TX:b:t=B:color=red	!	!	!LO:SIC:v:n=2:s=2BBn^\	!LO:SIC:v:n=5:s=2dn/	!
2Bn\yy	.	2Bn\	.	2dn\ 2bn	.	2g#X/ 2bn	.	2bn\ 2een	.	2En/ 2G# 2Bn	2BB-^\ 2Dn	2d-/ 2en 2g#X 2bn 2een	.
!	!	!	!	!	!	!	!	!	!	!	!LO:SIC:v:s=4BBn\	!	!
8.B\Lyy	.	8.B\L	.	8.d\L 8.b	.	8.g#/L 8.b	.	8.b\L 8.ee	.	8.D/L 8.E 8.G# 8.B	4BB-\	8.d-/L 8.e 8.g# 8.b 8.ee	.
16B\Jkyy	.	16B\Jk	.	16d\Jk 16b	.	16g#/Jk 16b	.	16b\Jk 16ee	.	16D/Jk 16E 16G# 16B	.	16d-/Jk 16e 16g# 16b 16ee	.
*	*	*Xrep	*	*Xrep	*	*Xrep	*	*Xrep	*	*Xrep	*Xrep	*Xrep	*
=23	=23	=23	=23	=23	=23	=23	=23	=23	=23	=23	=23	=23	=23
2Bn\yy	.	2Bn\	.	2dn\ 2bn	.	2g#X/ 2bn	.	2bn\ 2een	.	4D-/ 4En 4G# 4Bn	2BBn\	4d-/ 4en 4g# 4bn 4een	.
.	.	.	.	.	.	.	.	.	.	4E/ 4G# 4B	.	4d-/ 4e 4g# 4b	.
8.B\Lyy	.	8.B\L	.	8.d\L	.	8.g#/L	.	8.ee\L	.	8.D-/L 8.E 8.G# 8.B	8.BB\L	8.d-/L 8.e 8.g# 8.ee	.
16B-X\Jkyy	.	16B-X\Jk	.	16d\Jk	.	16g#/Jk	.	16ffn\Jk	.	16B-X/Jk	16BB-X\Jk	16f/Jk 16g# 16ff	.
=24	=24	=24	=24	=24	=24	=24	=24	=24	=24	=24	=24	=24	=24
4B-X\yy	.	4B-X\	.	4dn\	.	4g#X/	.	4ff\	.	2B-X/ 2dn	2BB-X\	2f/ 2g#X 2ff	.
4ryy	.	4r	.	4r	.	4r	.	4r	.	.	.	.	.
!	!	!	!	!	!	!	!	!	!	!	!	!	!LO:DY:rj
4ryy	.	4r	.	4r	.	4r	.	4r	.	([4B-/ [4d	4ryy	(>[>4a-X/ [>4ff	pp
=25	=25	=25	=25	=25	=25	=25	=25	=25	=25	=25	=25	=25	=25
2.ryy	.	2.ryy	.	2.ryy	.	2.ryy	.	2.ryy	.	4B-/] 4dnX]	2.rAA	4a-/] 4ff]	.
.	.	.	.	.	.	.	.	.	.	4E-/) 4d-X	.	4g/) 4b-	.
.	.	.	.	.	.	.	.	.	.	(<4A-/ 4c	.	(>[4g-X/ [4ee-	.
=26	=26	=26	=26	=26	=26	=26	=26	=26	=26	=26	=26	=26	=26
*	*	*	*	*	*	*	*	*	*	*	*^	*^	*
2.ryy	.	2.ryy	.	2.ryy	.	2.ryy	.	2.ryy	.	2.A-/	2.rAA	4.C/ 4.A-	4g-X/] 4ee-]	2ryy	.
.	.	.	.	.	.	.	.	.	.	.	.	.	4f/) 4a-	.	.
.	.	.	.	.	.	.	.	.	.	.	.	8D-/)	.	.	.
.	.	.	.	.	.	.	.	.	.	.	.	4Dn/	8a-/L	4f-X\	.
.	.	.	.	.	.	.	.	.	.	.	.	.	8b-/J	.	.
=27	=27	=27	=27	=27	=27	=27	=27	=27	=27	=27	=27	=27	=27	=27	=27
2.r;	.	2.r;	.	2.r;	.	2.r;	.	2.r;	.	2.E-\	2.r	4A-/	4cc/	(2e-\	.
.	.	.	.	.	.	.	.	.	.	.	.	8G/L	8b-/L	.	.
.	.	.	.	.	.	.	.	.	.	.	.	8A-/J	8cc/	.	.
.	.	.	.	.	.	.	.	.	.	.	.	4B-;/	8.dd-;/	4e-\)	.
.	.	.	.	.	.	.	.	.	.	.	.	.	16g/Jk	.	.
*	*	*	*	*	*	*	*	*	*	*	*v	*v	*	*	*
*	*	*	*	*	*	*	*	*	*	*	*	*v	*v	*
=28	=28	=28	=28	=28	=28	=28	=28	=28	=28	=28	=28	=28	=28
!	!	!	!	!	!LO:DY:rj	!	!	!	!	!	!	!	!
2.r	.	8r	.	8r	p	8r	.	8r	.	(8AA-/L 8A-	2.r	(8a-/L	.
!	!	!	!LO:DY:rj	!	!	!	!	!	!	!	!	!	!
.	.	(8E-\L	p	(8E-/L	.	(8e-/L	p	(8e-/L	p	8E-/	.	8e-/	.
.	.	8A-\	.	8A-/	.	8a-/	.	8a-/	.	8A-/	.	8a-/	.
.	.	8e-\	.	8e-/	.	8ee-/	.	8ee-/	.	8e-/	.	8ee-/	.
.	.	8c\	.	8c/	.	8cc/	.	8cc/	.	8c/	.	8cc/	.
.	.	8A-\J)	.	8A-/J)	.	8a-/J)	.	8a-/J)	.	8A-/J)	.	8a-/J)	.
!!LO:PB:g=original
=29	=29	=29	=29	=29	=29	=29	=29	=29	=29	=29	=29	=29	=29
!	!	!	!	!	!	!	!	!	!LO:DY:rj	!	!	!	!
2.E-\	p	2.E-\	p	2d-X\	p	2.g/	p	2b-/	p	[2.E-/	[2.EE-\	[4e-/	.
.	.	.	.	.	.	.	.	.	.	.	.	8e-/]	.
.	.	.	.	.	.	.	.	.	.	.	.	8r	.
.	.	.	.	(8e-\L	.	.	.	(8cc/L	.	.	.	4r	.
.	.	.	.	8d-\J)	.	.	.	8b-/J)	.	.	.	.	.
=30	=30	=30	=30	=30	=30	=30	=30	=30	=30	=30	=30	=30	=30
2.E-\	.	2.E-\	.	(>4c\	.	(8a-/L	.	(8a-/L	.	2.E-/_	2.EE-\_	2.r	.
.	.	.	.	.	.	8e-/	.	8e-/	.	.	.	.	.
.	.	.	.	4A-/)	.	8c/	.	8c/	.	.	.	.	.
.	.	.	.	.	.	8e-/)	.	8e-/)	.	.	.	.	.
.	.	.	.	(8c\L	.	8a-/	.	(8a-/	.	.	.	.	.
.	.	.	.	8e-\J)	.	8cc/J	.	8cc/J)	.	.	.	.	.
=31	=31	=31	=31	=31	=31	=31	=31	=31	=31	=31	=31	=31	=31
*	*	*	*	*	*	*	*	*2\left	*	*	*	*	*
2.E-\	.	2.E-\	.	2B-/	.	2.g/	.	2dd-\	.	2.E-/]	2.EE-\]	2.r	.
.	.	.	.	8c/L	.	.	.	(8ee-\L	.	.	.	.	.
.	.	.	.	8B-/J	.	.	.	8dd-\J)	.	.	.	.	.
=32	=32	=32	=32	=32	=32	=32	=32	=32	=32	=32	=32	=32	=32
4AA-/	.	4AA-/	.	4A-/	.	(8a-/L	.	(8cc\L	<	4AA-/	4AA-\	2.r	.
.	.	.	.	.	.	8e-/J)	.	8a-\	.	.	.	.	.
4r	.	4r	.	4r	.	(8e-/L	<	8e-\	.	4r	4ryy	.	.
.	.	.	.	.	.	8a-/	.	8a-\)	.	.	.	.	.
!	!LO:DY:rj	!	!LO:DY:rj	!	!LO:DY:rj	!	!	!	!	!	!	!	!
4A-\	f	4A-\	f	4a-\	f	8cc/	.	(8cc\	[	4r	4ryy	.	.
.	.	.	.	.	.	8ee-/J)	[[	8ee-\J)	f	.	.	.	.
*	*	*	*	*	*	*	*	*	*	*v	*v	*	*
=33	=33	=33	=33	=33	=33	=33	=33	=33	=33	=33	=33	=33
8.d-;\L	.	8.d-;\L	.	8.f;\L	.	8.a-;/L	f	8.ff;\L	.	4r;	4r;	.
16c\Jk	.	16c\Jk	.	16e-\Jk	.	16a-/Jk	.	16ee-\Jk	.	.	.	.
4c\	.	4c\	.	4e-\	.	4a-/	.	4ee-\	.	4r	4r	.
8r	.	8r	.	8r	.	8r	.	8r	.	4r	4r	.
8A-\	.	8A-\	.	8e-\	.	8a-/	.	8cc\	.	.	.	.
=34	=34	=34	=34	=34	=34	=34	=34	=34	=34	=34	=34	=34
8.G;\L	.	8.G;\L	.	8.e-;\L	.	8.b-;/L	.	8.ee-;\L	.	4r;	4r;	.
16G\Jk	.	16G\Jk	.	16e-\Jk	.	16b-/Jk	.	16dd-\Jk	.	.	.	.
4A-\	.	4A-\	.	4e-\	.	4a-/	.	4cc\	.	4r	4r	.
4r	.	8r	.	8r	.	8r	.	8r	.	4r	4r	.
.	.	8C\	.	8C/	.	8c/	.	8cc\	.	.	.	.
=35	=35	=35	=35	=35	=35	=35	=35	=35	=35	=35	=35	=35
!	!	!	!	!	!	!LO:SIC:v:s=4e-/	!	!	!	!	!	!
4r	.	4E-\	.	4E-/	.	4d-/	.	4ee-\	.	4r	4r	.
4r	.	8A-\L	.	8A-/L	.	8a-/L	.	8a-/L	.	4r	4r	.
.	.	8B-\	.	8B-/	.	8b-/	.	8b-/	.	.	.	.
!	!	!	!	!LO:TX:b:t=a	!	!	!	!	!	!	!	!
4r;	.	8.c;\	.	8.c;/	.	8.cc;/	.	8.cc;/	.	4r;	4r;	.
.	.	16A-\Jk	.	16A-/Jk	.	16a-/Jk	.	16a-/Jk	.	.	.	.
=36	=36	=36	=36	=36	=36	=36	=36	=36	=36	=36	=36	=36
2.r	.	2.E-\	>]	2.E-/	>]	2.e-/	>]	2.e-/	>]	2.r	2.r	.
!!LO:PB:g=original
=37	=37	=37	=37	=37	=37	=37	=37	=37	=37	=37	=37	=37
!	!	!	!	!	!	!	!	!	!	!	!	!LO:DY:rj
8.GG;/L	.	8.GG;/L	pp	8.B-;/L	pp	8.e-;/L	pp	8.dd-;\L	pp	8.GG/L 8.BB- 8.E-	8.B-;/L 8.d-	ppp
16AA-/Jk	.	16AA-/Jk	.	16A-/Jk	.	16e-/Jk	.	16cc\Jk	.	16AA-/Jk 16C 16E-	16A-/Jk 16c	.
!	!	!	!	!	!	!	!	!	!	!LO:TX:t=...	!	!
4.AA-/	.	4.AA-/	.	4.A-/	.	4.e-/	.	4.cc\	.	4.AA-/ 4.C 4.E-	4.A-/ 4.c	.
8BB-/	.	8BB-/	.	8E-/	.	8e-/	.	8g/	.	8BB-/ 8E-	8G/ 8e-	.
=38	=38	=38	=38	=38	=38	=38	=38	=38	=38	=38	=38	=38
8.D-;/L	.	8.D-;/L	.	8.G;/L	.	8.e-;/L	.	8.b-;/L	.	8.D-/L 8.E-	8.G;/L 8.B- 8.d-	.
16C/Jk	.	16C/Jk	.	16A-/Jk	.	16e-/Jk	.	16a-/Jk	.	16C/Jk 16E-	16A-/Jk 16e-	.
8C/	.	8C/	.	8A-/	.	8e-/	.	8a-/	.	8C/ 8E-	8A-/ 8e-	.
8r	.	8r	.	8r	.	8r	.	8r	.	8r	8r	.
4r	.	4D-/	pp	4A-/	pp	4d-/	pp	4f/	pp	4r	4r	.
=39	=39	=39	=39	=39	=39	=39	=39	=39	=39	=39	=39	=39
!LO:TX:t=P:problem=powtórzenie partii vlc	!	!	!	!	!	!	!	!	!	!	!	!
2.E-\yy	.	2.E-\	.	2A-/	.	2c/	.	4a-/	.	2.r	2.r	.
.	.	.	.	.	.	.	.	8g/L	.	.	.	.
.	.	.	.	.	.	.	.	8a-/	.	.	.	.
.	.	.	.	8.G/L	.	8.d-/L	.	8.b-/	.	.	.	.
.	.	.	.	16B-/Jk	.	16e-/Jk	.	16e-/Jk	.	.	.	.
=40	=40	=40	=40	=40	=40	=40	=40	=40	=40	=40	=40	=40
*	*	*	*	*	*	*	*	*2\right	*	*	*	*
2AA-/yy	<	2AA-/	<	(4c\	<	(4e-/	<	2.cc\	<	2.r	2.r	.
.	.	.	.	4dn\	.	4f/	.	.	.	.	.	.
4A-\yy	.	4A-\	.	4d#X\)	.	4f#X/)	.	.	.	.	.	.
=41	=41	=41	=41	=41	=41	=41	=41	=41	=41	=41	=41	=41
2.G\yy	[[	2.G\	[[	2en\	.	2g/	.	4cc\	.	2.r	2.r	.
.	.	.	.	.	.	.	.	8bn\L	.	.	.	.
.	.	.	.	.	.	.	.	8cc\	[	.	.	.
.	.	.	.	4Bn\	[	4fn/	[	8.ddn\	.	.	.	.
.	.	.	.	.	.	.	.	16g\Jk	.	.	.	.
=42	=42	=42	=42	=42	=42	=42	=42	=42	=42	=42	=42	=42
*	*	*	*	*	*	*	*	*	*	*^	*	*
4c\yy	.	4c\	.	4c\	.	4en/	.	4een\	.	4r	2ryy	4r	.
4ryy	.	4r	.	4r	.	8g/	.	4r	.	4r	.	4r	.
.	.	.	.	.	.	8r	.	.	.	.	.	.	.
!	!	!	!	!	!LO:DY:rj	!	!	!	!	!	!	!LO:SIC:v:n=4:s=8.en	!
!	!LO:DY:rj	!	!LO:DY:rj	!	!	!	!LO:DY:rj	!	!LO:DY:rj	!	!	!LO:SIC:v:n=5:s=8.dn/L	!LO:DY:rj
8.Bn\Lyy	ffy	8.Bn\L	ff	8.dn\L 8.bn	ff	8.g#X/L 8.bn	ff	8.bn\L 8.ee	ff	8.Dn/L 8.En 8.G#X 8.Bn	4BBn\	8.d-/L 8.e- 8.g#X 8.bn 8.een	ff
!	!	!	!	!	!	!	!	!	!	!	!	!LO:SIC:v:n=4:s=16en	!
!	!	!	!	!	!	!	!	!	!	!	!	!LO:SIC:v:n=5:s=16dn/Jk	!
16B\Jkyy	.	16B\Jk	.	16d\Jk 16b	.	16g#/Jk 16b	.	16b\Jk 16ee	.	16D/Jk 16E 16G# 16B	.	16d-/Jk 16e- 16g# 16b 16ee	.
=43	=43	=43	=43	=43	=43	=43	=43	=43	=43	=43	=43	=43	=43
!	!	!	!	!	!	!LO:TX:t=a	!	!	!	!	!LO:SIC:v:n=2:s=2BBn^\	!LO:SIC:v:n=5:s=2dn/	!
!	!	!	!	!	!	!	!	!	!	!	!	!LO:TX:t=a:color=red	!
2Bn\yyyy	.	2Bn\yy	.	2dn\yy 2bnyy	.	2g#X/yy 2bnyy	.	2bn\yy 2eenyy	.	2En/yy 2G#yy 2Bnyy	2BB-^\yy 2Dnyy	2d-/yy 2enyy 2g#Xyy 2bnyy 2eenyy	.
!	!	!	!	!	!	!	!	!	!	!	!LO:SIC:v:s=4BBn\	!	!
8.B\Lyy	.	8.B\Lyy	.	8.d\Lyy 8.byy	.	8.g#/Lyy 8.byy	.	8.b\Lyy 8.eeyy	.	8.D/Lyy 8.Eyy 8.G#yy 8.Byy	4BB-\yy	8.d-/Lyy 8.eyy 8.g#yy 8.byy 8.eeyy	.
16B\Jkyy	.	16B\Jkyy	.	16d\Jkyy 16byy	.	16g#/Jkyy 16byy	.	16b\Jkyy 16eeyy	.	16D/Jkyy 16Eyy 16G#yy 16Byy	.	16d-/Jkyy 16eyy 16g#yy 16byy 16eeyy	.
=44	=44	=44	=44	=44	=44	=44	=44	=44	=44	=44	=44	=44	=44
*	*	*	*	*	*	*	*	*	*	*rep	*rep	*rep	*
!	!	!	!	!	!	!LO:TX:t=B	!	!	!	!	!LO:SIC:v:n=2:s=2BBn^\	!LO:SIC:v:n=5:s=2dn/	!
!	!	!	!	!	!	!	!	!	!	!	!	!LO:TX:t=B:color=red	!
2Bn\yy	.	2Bn\yy	.	2dn\yy 2bnyy	.	2g#X/yy 2bnyy	.	2bn\yy 2eenyy	.	2En/ 2G# 2Bn	2BB-^\ 2Dn	2d-/ 2en 2g#X 2bn 2een	.
!	!	!	!	!	!	!	!	!	!	!	!LO:SIC:v:s=4BBn\	!	!
8.B\Lyy	.	8.B\Lyy	.	8.d\Lyy 8.byy	.	8.g#/Lyy 8.byy	.	8.b\Lyy 8.eeyy	.	8.D/L 8.E 8.G# 8.B	4BB-\	8.d-/L 8.e 8.g# 8.b 8.ee	.
16B\Jkyy	.	16B\Jkyy	.	16d\Jkyy 16byy	.	16g#/Jkyy 16byy	.	16b\Jkyy 16eeyy	.	16D/Jk 16E 16G# 16B	.	16d-/Jk 16e 16g# 16b 16ee	.
*	*	*	*	*	*	*	*	*	*	*Xrep	*Xrep	*Xrep	*
=45	=45	=45	=45	=45	=45	=45	=45	=45	=45	=45	=45	=45	=45
4Bn\	.	4Bn^\	.	4dn^\ 4bn	.	4g#X^/ 4bn	.	4bn^\ 4een	.	4Dn/ 4En 4G#X 4Bn	4BBn\	4dn/ 4en 4g#X 4bn 4een	.
8B\L	.	8B\L	.	8d\L 8b	.	8g#/L 8b	.	8.b\L 8.ee	.	4D/ 4E 4G# 4B	4BB\	4e/ 4g# 4b	.
8B\	.	8B\	.	8d\ 8b	.	8g#/ 8b	.	.	.	.	.	.	.
.	.	.	.	.	.	.	.	16b\K 16ee	.	.	.	.	.
8.B^\	.	8.B^\	.	8.d^\ 8.b	.	8.g#^/ 8.b	.	8.b^\ 8.ee	.	4E/ 4G# 4B	4BB\	8.e/L 8.g# 8.b 8.ee	.
16B\Jk	.	16B\Jk	.	16d\Jk 16b	.	16g#/Jk 16b	.	16ff\Jk	.	.	.	16f/Jk 16g# 16b 16ffn	.
!!LO:PB:g=original
=46	=46	=46	=46	=46	=46	=46	=46	=46	=46	=46	=46	=46	=46
!	!	!LO:TX:t=P:problem=HP na pięciolinii	!	!LO:TX:t=P:problem=HP na pięciolinii	!	!LO:TX:t=P:problem=HP na pięciolinii	!	!LO:TX:t=P:problem=HP na pięciolinii	!	!	!	!	!
4Bn\	.	2Bn;\	>	2d-X;\	>	2g#X;/	>	2ff;\	>	[<4D-/ [>4G#X [>4Bn	[<4BBn\	[<4f/ [>4g#X [>4bn [>4ff	.
4r;	.	.	.	.	.	.	.	.	.	8D-/] 8G#] 8B]	8BB\]	8f/] 8g#] 8b] 8ff]	.
.	.	.	.	.	.	.	.	.	.	8r;	8ryy	8r;	.
!	!	!	!LO:DY:rj	!	!LO:DY:rj	!	!LO:DY:rj	!	!LO:DY:rj	!	!	!	!
4r	.	8.B-X\L	] p	8.d-X\L	] p	8.a-X/L	] p	8.ff\L	] p	4r	4ryy	4r	.
.	.	16B-\Jk	.	16d-\Jk	.	16a-/Jk	.	16ff\Jk	.	.	.	.	.
*	*	*	*	*	*	*	*	*	*	*v	*v	*	*
=47	=47	=47	=47	=47	=47	=47	=47	=47	=47	=47	=47	=47
2.r	.	(4B-\	.	2d-X\	.	4a-X/	.	(4ff\	.	2.r	2.r	.
.	.	4E-\)	.	.	.	4g/	.	4b-\)	.	.	.	.
.	.	8.A-\L	.	8.c\L	.	8.g-X/L	.	8.ee-\L	.	.	.	.
.	.	16A-\Jk	.	16c\Jk	.	16g-/Jk	.	16ee-\Jk	.	.	.	.
=48	=48	=48	=48	=48	=48	=48	=48	=48	=48	=48	=48	=48
4r	.	(4C/	.	2A-/	.	(4g-X/	.	(4ee-\	.	2.ryy	2.ryy	.
4r	.	8D-/)	.	.	.	8f/)	.	8a-/)	.	.	.	.
.	.	8r	.	.	.	8r	.	8r	.	.	.	.
!	!LO:DY:rj	!	!	!	!	!	!	!	!	!	!	!
4D-\	p	4D-/	.	4A-/	.	4f-X/	.	8a-/L	.	.	.	.
.	.	.	.	.	.	.	.	8b-/J	.	.	.	.
=49	=49	=49	=49	=49	=49	=49	=49	=49	=49	=49	=49	=49
2E-\	.	2E-\	.	4A-/	.	2e-/	.	4cc\	.	2.r;	2.r;	.
.	.	.	.	8G/L	.	.	.	8b-\L	.	.	.	.
.	.	.	.	8F/J	.	.	.	8cc\J	.	.	.	.
!	!	!	!	!	!	!	!	!LO:TX:t=P:problem=mixed beam	!	!	!	!
4E-;\	.	4E-;\	.	8.G;/L	.	4d-;/	.	8.ee-;\L	.	.	.	.
.	.	.	.	16c/Jk	.	.	.	16g/Jk	.	.	.	.
=50	=50	=50	=50	=50	=50	=50	=50	=50	=50	=50	=50	=50
*	*	*	*	*	*	*	*	*	*	*^	*	*
!	!	!	!	!LO:TX:a:i:t=un poco piu lento	!	!	!	!	!	!	!	!	!
!	!LO:DY:rj	!	!	!	!	!	!	!	!	!LO:TX:b:i:t=un poco piu lento	!	!	!
2AA-/	pp	8AA-/	pp	8A-/	pp	2c/	.	2a-/	.	4r	2AA-\	2.r	.
.	.	8r	.	8r	.	.	.	.	.	.	.	.	.
.	.	(>4E-^\	.	4E-^/	.	.	.	.	.	2E-^/	.	.	.
!	!	!	!	!	!	!	!LO:DY:rj	!	!LO:DY:rj	!	!	!	!
4E-\	.	8EE-/)	.	4G/	.	(4d-/	pp	(8g/L	pp	.	4EE-\	.	.
.	.	8r	.	.	.	.	.	8f/J)	.	.	.	.	.
=51	=51	=51	=51	=51	=51	=51	=51	=51	=51	=51	=51	=51	=51
*rep	*	*rep	*	*rep	*	*	*	*	*	*	*	*	*
2AA-/	.	8AA-/	.	8A-/	.	(4c'/)	.	(4e-|/	.	4r	2AA-\	2.r	.
.	.	8r	.	8r	.	.	.	.	.	.	.	.	.
.	.	(>4E-^\	.	4E-^/	.	4c'/ 4e-	.	4a-|/	.	2E-^/	.	.	.
4E-\	.	8EE-/)	.	4G/	.	4d-'/)	.	4b-|/)	.	.	4EE-\	.	.
.	.	8r	.	.	.	.	.	.	.	.	.	.	.
*Xrep	*	*Xrep	*	*Xrep	*	*	*	*	*	*	*	*	*
=52	=52	=52	=52	=52	=52	=52	=52	=52	=52	=52	=52	=52	=52
*rep	*	*rep	*	*rep	*	*	*	*	*	*	*	*	*
2AA-/	.	8AA-/	.	8A-/	.	2c/	.	(4cc\	.	4r	2AA-\	2.r	.
.	.	8r	.	8r	.	.	.	.	.	.	.	.	.
.	.	(>4E-^\	.	4E-^/	.	.	.	4a-\)	.	2E-/	.	.	.
4E-\	.	8EE-/)	.	4G/	.	(8e-/L	.	(8g/L	.	.	4EE-\	.	.
.	.	8r	.	.	.	8d-/J)	.	8f/J)	.	.	.	.	.
*Xrep	*	*Xrep	*	*Xrep	*	*	*	*	*	*	*	*	*
=53	=53	=53	=53	=53	=53	=53	=53	=53	=53	=53	=53	=53	=53
*rep	*	*rep	*	*rep	*	*	*	*	*	*	*	*	*
2AA-/	.	8AA-/	.	8A-/	.	(4c'/	.	(4e-|/	.	4r	2AA-\	2.r	.
.	.	8r	.	8r	.	.	.	.	.	.	.	.	.
.	.	(>4E-^\	.	4E-^/	.	4c'/) 4e-	.	4a-|/	.	2E-^/	.	.	.
4E-\	.	8EE-/)	.	4G/	.	4d-'/	.	4b-|/)	.	.	4EE-\	.	.
.	.	8r	.	.	.	.	.	.	.	.	.	.	.
*Xrep	*	*Xrep	*	*Xrep	*	*	*	*	*	*	*	*	*
=54	=54	=54	=54	=54	=54	=54	=54	=54	=54	=54	=54	=54	=54
4AA-/	.	4AA-/	.	4E-/ [<4A-	.	4c/	.	(4cc\	.	4r	4AA-\	4r	.
4r	.	4r	.	8A-'/]	.	4r	.	8a-\)	.	4A-/	4r	4r	.
.	.	.	.	8r	.	.	.	8r	f	.	.	.	.
!	!LO:DY:rj	!	!LO:DY:rj	!	!LO:DY:rj	!	!LO:DY:rj	!	!	!	!	!	!LO:DY:rj
8A-\	f	8A-\	f	8a-\	f	8a-/	f	8a-/	.	4A-/	4r	4a-/	f
8r	.	8r	.	8r	.	8r	.	8r	.	.	.	.	.
!!LO:PB:g=original
=55	=55	=55	=55	=55	=55	=55	=55	=55	=55	=55	=55	=55	=55
!	!	!	!	!	!	!	!	!	!	!	!	!LO:N:n=1:vis=2	!
!	!LO:DY:rj	!	!LO:DY:rj	!	!LO:DY:rj	!	!LO:DY:rj	!	!LO:DY:rj	!	!	!LO:N:n=3:vis=2	!
2.D-^\	ff	2.D-^\	ff	2a-^\	ff	2f^\ 2dd-	ff	2f^\ 2dd-	ff	2.F/ 2.A-	2.DD-\ 2.D-	2.d-/ 2.f 2.a- 2.dd-	.
.	.	.	.	4f\	.	4A-/	.	4d-/	.	.	.	.	.
=56	=56	=56	=56	=56	=56	=56	=56	=56	=56	=56	=56	=56	=56
!	!	!	!	!LO:TX:t=P:problem=HP na pięciolinii	!	!LO:TX:t=P:problem=HP na pięciolinii	!LO:HP:a	!LO:TX:t=P:problem=HP na pięciolinii	!	!	!	!	!
4.G-X\	.	4.G-X\	>	(2g-X\	>	2.B-/	>]	2.d-/	>]	2B-/	4.GG-X\ 4.G-X	2g-X/ 2dd-	.
8F-X\	.	8F-X\	.	.	.	.	.	.	.	.	8FF-X\ 8F-X	.	.
!	!	!	!	!	!	!	!	!	!	!	!	!	!LO:DY:rj
4E-\	.	4E-\	]	4gn\)	]	.	.	.	.	4B-/	4EE-\ 4E-	((4d-/ 4gn	p
=57	=57	=57	=57	=57	=57	=57	=57	=57	=57	=57	=57	=57	=57
2AA-/	.	2AA-/	.	2a-\	.	2A-/	.	2c/	.	2E-/	2AA-\	2c/)) 2a-	.
!	!LO:DY:rj	!	!LO:DY:rj	!	!	!	!LO:DY:rj	!	!LO:DY:rj	!	!	!	!LO:DY:rj
4AA-/	pp	4AA-/	pp	4A-/	pp	4c/	pp	4e-/	pp	4E-/	4AA-\	4c/ 4e-	pp
=58	=58	=58	=58	=58	=58	=58	=58	=58	=58	=58	=58	=58	=58
2.AA-;/	.	2.AA-;/	.	2.E-;/	.	2.A-/	.	2.c;/	.	2.E-;/	2.AA-\	2.A-;/ 2.c	.
*	*	*	*	*	*	*	*	*	*	*v	*v	*	*
==	==	==	==	==	==	==	==	==	==	==	==	==
*-	*-	*-	*-	*-	*-	*-	*-	*-	*-	*-	*-	*-
!!!system-decoration: {(s1,s2)}[(s3,s4,s5,s6,s7)]
!!!RDF**kern: < = below
!!!RDF**kern: > = above
!!!RDF**kern: | = vertical stroke
!!!ENC: Marta Chmielewska
!!!END: 2021-07-14
!!!ENC: Andrzej Gręziak
!!!END: 2021-07-09
!!!YEC: Copyright 2022 Narodowy Instytut Fryderyka Chopina (https://polishscores.org)
!!!YEM: License CC-BY-4.0 (https://creativecommons.org/licenses/by/4.0)
